X: 554
T: Dertli Ne Ağlayıp Gezersin...
C: Erol Sayan
O: Turkey
F: http://compmusic.upf.edu/node/140
N: gulizar--turku--sofyan--dertli--erol_sayan
N: makam= gulizar
N: form= turku
N: usul= sofyan = 4/4
M: 4/4
L: 1/16
K: C _2/4B ^3/4f  
Q: 1/4=48
%%MIDI tuningsystem comma53
z2e=f f2fe f{g}f/e/fg a/g/f/e/de  | \
w:   | 
d2ee e{=f}e/d/d2 d/e/c/d/c2 d{f}e/d/d2  | 
w:   | 
z2cd d2g2 gf_7/8ed d/c/B/d/c2  | {d}c/B/A/G/Bc BAA2 A4 e/=f/g/e/f2  | 
w:   |   | 
z2e=f f2fe f{g}f/e/fg a/g/f/e/de  | \
w:   | 
d2ee e{=f}e/d/d2 d/e/c/d/c2 d{f}e/d/d2  | 
w:   | 
z2cd d2g2 gf_7/8ed d/c/B/d/c2  | {d}c/B/A/G/Bc BAA2 A4 a/g/f/g/a2  | 
w:   |   | 
z2fg a2a2 ag/a/g2 gf/g/f2  | c'c'2b _baba a3g/f/ e/d/c/B/A2  | 
w:  Dert li  ne  ağ la *  *  *  yıp   |  ge zer *  sin  *  bur *  da   SAZ  | 
z2fg a2a2 ag/a/g2 g/a/f/g/f2  | gg2e eded d4 e/=f/g/e/f2  | 
w:  Dert li  ne  ağ la *  *  *  yıp   |  ge zer *  sin  *  bur *  da   SAZ  | 
z2e=f f2{g}fe f{g}f/e/fg a/g/f/e/de  | \
w:  Ağ la tır *  sa  *  Mev *  *  *  *  *  lâm   | 
d2ee e{f}e/d/d2 d/e/c/d/c2 d{f}e/d/d2  | 
w:  *  yi ne  gül *  *  *  dü rür    | 
z2cd d2g2 gf_7/8ed d/c/B/d/c2  | c/B/A/G/Bc B3/2A/A2 A4 a/g/f/g/a2  | 
w:  Ağ la tır sa  Mev *  *  *  lâm   |  *  *  *  *  yi ne  gül *  dü rür   SAZ  | 
z2fg a2a2 ag/a/g2 gf/g/f2  | c'c'2b _baba a3g/f/ e/d/c/B/A2  | 
w:  Dert li  ne  ağ la *  *  *  yıp   |  ge zer *  sin  *  bur *  da   SAZ  | 
z2fg a2a2 ag/a/g2 g/a/f/g/f2  | gg2e eded d4 e/=f/g/e/f2  | 
w:  Dert li  ne  ağ la *  *  *  yıp   |  ge zer *  sin  *  bur *  da   SAZ  | 
z2e=f f2{g}fe f{g}f/e/fg a/g/f/e/de  | \
w:  Ağ la tır *  sa  *  Mev *  *  *  *  *  lâm   | 
d2ee e{f}e/d/d2 d/e/c/d/c2 d{f}e/d/d2  | 
w:  *  yi ne  gül *  *  *  dü rür    | 
z2cd d2g2 gf_7/8ed d/c/B/d/c2  | c/B/A/G/Bc B3/2A/A2 A4 e/=f/g/e/f2  | 
w:  Ağ la tır sa  Mev *  *  *  lâm   |  *  *  *  *  yi ne  gül *  dü rür   SAZ  | 
z2e=f f2fe f{g}f/e/fg a/g/f/e/de  | \
w:   | 
d2ee e{=f}e/d/d2 d/e/c/d/c2 d{f}e/d/d2  | 
w:   | 
z2cd d2g2 gf_7/8ed d/c/B/d/c2  | {d}c/B/A/G/Bc BAA2 A4 e/=f/g/e/f2  | 
w:   |   | 
z2e=f f2fe f{g}f/e/fg a/g/f/e/de  | \
w:   | 
d2ee e{=f}e/d/d2 d/e/c/d/c2 d{f}e/d/d2  | 
w:   | 
z2cd d2g2 gf_7/8ed d/c/B/d/c2  | {d}c/B/A/G/Bc BAA2 A4 a/g/f/g/a2  | 
w:   |   | 
z2fg2aa2 ag/a/g2 gf/g/f2  | c'c'2b _baba a3g/f/ e/d/c/B/A2  | 
w:  Sev dâ ya  sal ma  *  *  *  şu   |  ga rip  *  ba *  şı *  nı   SAZ  | 
z2fg2aa2 ag/a/g2 g/a/f/g/f2  | gg2e eded d4 e/=f/g/e/f2  | 
w:  Sev dâ ya  sal ma  *  *  *  şu   |  ga rip  *  ba *  şı *  nı   SAZ  | 
z2e=f f2{g}fe f{g}f/e/fg a/g/f/e/de  | \
w:  A kı tır  *  gö *  zün *  *  *  *  *  den   | 
d2ee e{f}e/d/d2 d/e/c/d/c2 d{f}e/d/d2  | 
w:  *  kan lı  ya *  *  *  şı nı    | 
z2cd d2g2 gf_7/8ed d/c/B/d/c2  | c/B/A/G/Bc B3/2A/A2 A4 a/g/f/g/a2  | 
w:  A kı tır  gö zün *  *  *  den   |  *  *  *  *  kan lı  ya *  şı nı   SAZ  | 
z2fg2aa2 ag/a/g2 gf/g/f2  | c'c'2b _baba a3g/f/ e/d/c/B/A2  | 
w:  Sev dâ ya  sal ma  *  *  *  şu   |  ga rip  *  ba *  şı *  nı   SAZ  | 
z2fg2aa2 ag/a/g2 g/a/f/g/f2  | gg2e eded d4 e/=f/g/e/f2  | 
w:  Sev dâ ya  sal ma  *  *  *  şu   |  ga rip  *  ba *  şı *  nı   SAZ  | 
z2e=f f2{g}fe f{g}f/e/fg a/g/f/e/de  | \
w:  A kı tır  *  gö *  zün *  *  *  *  *  den   | 
d2ee e{f}e/d/d2 d/e/c/d/c2 d{f}e/d/d2  | 
w:  *  kan lı  ya *  *  *  şı nı    | 
z2cd d2g2 gf_7/8ed d/c/B/d/c2  | c/B/A/G/Bc B3/2A/A2 A4 z4  | 
w:  A kı tır  gö zün *  *  *  den   |  *  *  *  *  kan lı  ya *  şı nı    | 
|


